X:4
T:Saddle the Pony
R:jig
M:6/8
K:G
|: "G"GBA G2B|def gdB   |GBA G2B      |"D"AFD AFD  |
"G"GBA G2B|def gfg   |"C"e/f/ge dBA| "G"BGG G2D:|
|:"Em"efe edB|"D"def gfg|"Em"efe edB  |"D"dBA ABd  |
"Em"efe edB|"D"def gfg|"C"e/f/ge dBA   | "G"BGG GBd:|
